src/public/icon.svg

<svg viewBox="0 0 32 32" fill="none"
  xmlns="http://www.w3.org/2000/svg">
  <path d="M24.6887 20.4219C25.8448 21.5779 25.8448 23.4568 24.6887 24.6127C23.5326 25.7687 21.6535 25.7687 20.4974 24.6127C19.3414 23.4568 16.9411 16.866 16.9411 16.866C16.9411 16.866 23.5326 19.266 24.6887 20.4219Z" fill="#FF0066"/>
  <path d="M15.2089 16.866C15.2089 16.866 12.8087 23.4531 11.6526 24.6127C10.4965 25.7687 8.61742 25.7687 7.46134 24.6127C6.30526 23.4568 6.30526 21.5779 7.46134 20.4219C8.61742 19.266 15.2089 16.866 15.2089 16.866Z" fill="#FF0066"/>
  <path d="M24.6887 7.38716C25.8448 8.54311 25.8448 10.422 24.6887 11.578C23.5326 12.7339 16.9411 15.1339 16.9411 15.1339C16.9411 15.1339 19.3414 8.54678 20.4974 7.38716C21.6572 6.22753 23.5326 6.22753 24.6887 7.38716Z" fill="#FF0066"/>
  <path d="M11.6526 7.38716C12.8087 8.54311 15.2089 15.1339 15.2089 15.1339C15.2089 15.1339 8.62109 12.7339 7.46134 11.578C6.30526 10.422 6.30526 8.54311 7.46134 7.38716C8.61742 6.22753 10.4965 6.22753 11.6526 7.38716Z" fill="#FF0066"/>
  <path d="M32 15.9997C32 17.6364 30.6751 18.9612 29.0382 18.9612C27.4014 18.9612 17.7784 15.9997 17.7784 15.9997C17.7784 15.9997 27.4014 13.0383 29.0382 13.0383C30.6751 13.0383 32 14.363 32 15.9997Z" fill="#FF0066"/>
  <path d="M14.2216 15.9997C14.2216 15.9997 4.59863 18.9612 2.96177 18.9612C1.3249 18.9612 0 17.6364 0 15.9997C0 14.363 1.3249 13.0383 2.96177 13.0383C4.59863 13.0383 14.2216 15.9997 14.2216 15.9997Z" fill="#FF0066"/>
  <path d="M15.9974 32C14.3605 32 13.0356 30.6752 13.0356 29.0385C13.0356 27.4019 15.9974 17.7799 15.9974 17.7799C15.9974 17.7799 18.9592 27.4019 18.9592 29.0385C18.9592 30.6752 17.6343 32 15.9974 32Z" fill="#FF0066"/>
  <path d="M15.9974 14.2201C15.9974 14.2201 13.0356 4.59815 13.0356 2.96146C13.0356 1.32477 14.3605 0 15.9974 0C17.6343 0 18.9592 1.32477 18.9592 2.96146C18.9592 4.59815 15.9974 14.2201 15.9974 14.2201Z" fill="#FF0066"/>
</svg>

<svg xmlns="http://www.w3.org/2000/svg" fill="none" viewBox="0 0 32 32"><path fill="#F06" d="M24.689 20.422a2.965 2.965 0 0 1 0 4.19 2.966 2.966 0 0 1-4.192 0c-1.156-1.155-3.556-7.746-3.556-7.746s6.592 2.4 7.748 3.556M15.209 16.866s-2.4 6.587-3.556 7.747a2.966 2.966 0 0 1-4.192 0 2.965 2.965 0 0 1 0-4.191c1.156-1.156 7.748-3.556 7.748-3.556M24.689 7.387a2.965 2.965 0 0 1 0 4.191c-1.156 1.156-7.748 3.556-7.748 3.556s2.4-6.587 3.556-7.747a2.96 2.96 0 0 1 4.192 0M11.653 7.387c1.156 1.156 3.556 7.747 3.556 7.747s-6.588-2.4-7.748-3.556a2.966 2.966 0 0 1 0-4.19 2.96 2.96 0 0 1 4.192 0M32 16a2.96 2.96 0 0 1-2.962 2.961c-1.637 0-11.26-2.961-11.26-2.961s9.623-2.962 11.26-2.962A2.96 2.96 0 0 1 32 16M14.222 16S4.599 18.96 2.962 18.96A2.96 2.96 0 0 1 0 16a2.96 2.96 0 0 1 2.962-2.962c1.637 0 11.26 2.962 11.26 2.962M15.997 32a2.96 2.96 0 0 1-2.961-2.962c0-1.636 2.961-11.258 2.961-11.258s2.962 9.622 2.962 11.258A2.96 2.96 0 0 1 15.997 32M15.997 14.22s-2.961-9.622-2.961-11.259A2.96 2.96 0 0 1 15.997 0a2.96 2.96 0 0 1 2.962 2.961c0 1.637-2.962 11.26-2.962 11.26"/></svg>
